packages/icons/src/svg/filter-column.svg

<svg xmlns="http://www.w3.org/2000/svg" viewBox="0 0 16 16">
  <g>
    <path d="M15.98 1.4039L15.98 14.0799C15.98 14.8419 15.454 15.4599 14.804 15.4599 14.155 15.4599 13.629 14.8419 13.629 14.0799L13.629 1.4039C13.629.6409 14.155.0239 14.804.0239 15.454.0239 15.98.6409 15.98 1.4039M8.9473.6783C8.9123.7463 8.8823.8163 8.8583.8913L8.9473.7973 8.9473.6783zM10.4473.131L10.4473.797 10.4473 1.391 10.0403 1.824 8.7783 3.167 8.7783 14.056C8.7783 14.819 9.3043 15.437 9.9543 15.437 10.6033 15.437 11.1293 14.819 11.1293 14.056L11.1293 1.381C11.1293.825 10.8493.35 10.4473.131"/>
    <polygon points="8.947 0 0 0 0 .795 3.131 4.132 3.131 8.263 3.932 9.224 4.996 10.5 5.815 10.5 5.815 4.131 6.283 3.633 8.947 .797"/>
    <path d="M5.8154,12.0001 L4.9964,12.0001 L4.2934,12.0001 L3.9324,11.5661 L3.9324,14.0561 C3.9324,14.8191 4.4584,15.4371 5.1074,15.4371 C5.7564,15.4371 6.2834,14.8191 6.2834,14.0561 L6.2834,12.0001 L5.8154,12.0001 Z"/>
  </g>
</svg>

<svg xmlns="http://www.w3.org/2000/svg" viewBox="0 0 16 16">
	<path d="M15.98 1.404V14.08c0 .762-.526 1.38-1.176 1.38-.649 0-1.175-.618-1.175-1.38V1.404c0-.763.526-1.38 1.175-1.38.65 0 1.176.617 1.176 1.38M8.947.678a1.385 1.385 0 0 0-.089.213l.09-.094V.678zm1.5-.547v1.26l-.407.433-1.262 1.343v10.889c0 .763.526 1.381 1.176 1.381.65 0 1.175-.618 1.175-1.381V1.381c0-.556-.28-1.031-.682-1.25"/>
	<path d="M8.947 0H0v.795l3.131 3.337v4.131l.801.961L4.996 10.5h.819V4.131l.468-.498L8.947.797zM5.815 12H4.293l-.36-.434v2.49c0 .763.525 1.381 1.174 1.381.65 0 1.176-.618 1.176-1.38V12h-.468z"/>
</svg>
